public/icons/mail.svg

<svg xmlns:xlink="http://www.w3.org/1999/xlink" xmlns="http://www.w3.org/2000/svg" viewBox="0 0 24 24" height="24" width="24" preserveAspectRatio="xMidYMid meet" class="xvy4d1p xxk0z11" version="1.1"><title>business-email</title><desc>Created with Sketch.</desc><defs></defs><g stroke="none" stroke-width="1" fill="none" fill-rule="evenodd"><path d="M20.9169216,8.25409863 L12.2871787,13.5717219 L3.65743574,8.25409863 L3.65743574,6.12704932 L12.2871787,11.4446726 L20.9169216,6.12704932 L20.9169216,8.25409863 Z M20.9169216,4 L3.65743574,4 C2.47084608,4 1.51078718,4.95717219 1.51078718,6.12704932 L1.5,18.8893452 C1.5,20.0592223 2.47084608,21.0163945 3.65743574,21.0163945 L20.9169216,21.0163945 C22.1035113,21.0163945 23.0743574,20.0592223 23.0743574,18.8893452 L23.0743574,6.12704932 C23.0743574,4.95717219 22.1035113,4 20.9169216,4 L20.9169216,4 Z" fill="#ffffffe6"></path><g id="slices" transform="translate(0.000000, -480.000000)" fill="none"></g></g></svg>

<svg xmlns="http://www.w3.org/2000/svg" height="24" width="24" preserveAspectRatio="xMidYMid meet" xmlns:v="https://vecta.io/nano"><path d="M20.917 8.254l-8.63 5.318-8.63-5.318V6.127l8.63 5.318 8.63-5.318v2.127zm0-4.254H3.657a2.14 2.14 0 0 0-2.147 2.127L1.5 18.889c0 1.17.971 2.127 2.157 2.127h17.259c1.187 0 2.157-.957 2.157-2.127V6.127c0-1.17-.971-2.127-2.157-2.127h0z" fill="#ffffffe6" fill-rule="evenodd"/></svg>
